X: 5291
T: Brosna, The
R: reel
M: 4/4
K: Edorian
|:ED|B,E (3EDE FEDE|(3FGA Bc dBcd|BeeB dBAF|(3GFE FD EDB,A,|
B,E (3EDE FEDE|(3FGA Bc dBcd|BeeB dBAF|(3GFE FD E2:|
|:FA|Be (3ede Bgfe|dAeA dBAd|BA (3FGA dcdf|edBc (3dcd cd|
Be (3ede Bgfe|dAeA dBAd|BA (3FGA dBAF|(3GFE FD E2:|

